svg/food/feeder_line.svg

<svg xmlns="http://www.w3.org/2000/svg" width="24" height="24" viewBox="0 0 24 24"><g fill="none" fill-rule="evenodd"><path d="M24,0 L24,24 L0,24 L0,0 L24,0 Z M12.5935,23.2578 L12.5819,23.2595 L12.5109,23.295 L12.4919,23.2987 L12.4767,23.295 L12.4057,23.2595 C12.3958,23.2564 12.387,23.259 12.3821,23.2649 L12.378,23.2758 L12.3609,23.7031 L12.3659,23.7235 L12.3769,23.7357 L12.4805,23.8097 L12.4953,23.8136 L12.5071,23.8097 L12.6107,23.7357 L12.6233,23.7197 L12.6267,23.7031 L12.6096,23.2758 C12.6076,23.2657 12.601,23.2593 12.5935,23.2578 Z M12.8584,23.1453 L12.8445,23.1473 L12.6598,23.2397 L12.6499,23.2499 L12.6472,23.2611 L12.6651,23.6906 L12.6699,23.7034 L12.6784,23.7105 L12.8793,23.8032 C12.8914,23.8069 12.9022,23.803 12.9078,23.7952 L12.9118,23.7812 L12.8777,23.1665 C12.8753,23.1546 12.8674,23.147 12.8584,23.1453 Z M12.143,23.1473 C12.1332,23.1424 12.1222,23.1453 12.1156,23.1526 L12.1099,23.1665 L12.0758,23.7812 C12.0751,23.7927 12.0828,23.8019 12.0926,23.8046 L12.1083,23.8032 L12.3092,23.7105 L12.3186,23.7024 L12.3225,23.6906 L12.3404,23.2611 L12.3372,23.2485 L12.3278,23.2397 L12.143,23.1473 Z"/><path fill="#09244B" d="M6.3725,10.2788 C5.92355,9.91794 5.94525,9.37306 6.17926,8.90504 C6.89091,7.48174 8.13882,6.39944 9.64846,5.89623 L9.73499,5.86738 L9.49974,5.16165 C9.08501,3.91745 9.64827,2.55762 10.8213,1.9711 C11.5632,1.60013 12.4365,1.60013 13.1785,1.9711 C14.3515,2.55762 14.9148,3.91745 14.5001,5.16165 L14.2648,5.86738 L14.3513,5.89623 C15.861,6.39944 17.1089,7.48174 17.8205,8.90504 C18.0545,9.37306 18.0762,9.91794 17.6273,10.2788 C18.1691,11.0302 18.3937,12.0156 18.1694,12.962 C17.9564,13.8608 17.7999,14.7789 17.7999,15.4998 C17.7999,16.2208 17.9564,17.1389 18.1694,18.0377 C18.6203,19.9399 17.2573,21.9998 15.1511,21.9998 L8.8487,21.9998 C6.74254,21.9998 5.37947,19.9399 5.83038,18.0377 C6.04344,17.1389 6.1999,16.2208 6.1999,15.4998 C6.1999,14.7789 6.04344,13.8608 5.83038,12.962 C5.60605,12.0156 5.83071,11.0302 6.3725,10.2788 Z M11.7157,3.75995 C11.8946,3.67051 12.1052,3.67051 12.2841,3.75995 C12.5669,3.90136 12.7027,4.22922 12.6027,4.5292 L12.2093,5.70927 C11.9474,6.49518 12.3721,7.34466 13.158,7.60664 L13.7189,7.79359 C14.4278,8.02989 15.0501,8.45771 15.5219,9.0216 C15.4011,9.00725 15.2774,8.99984 15.1511,8.99984 L8.8487,8.99984 C8.72236,8.99984 8.59869,9.00725 8.47792,9.0216 C8.94972,8.45771 9.57203,8.02989 10.2809,7.79359 L10.8418,7.60664 C11.6277,7.34466 12.0524,6.49518 11.7905,5.70927 L11.3971,4.5292 C11.2971,4.22922 11.4329,3.90136 11.7157,3.75995 Z M7.77646,12.5007 C7.58797,11.7055 8.18268,10.9998 8.8487,10.9998 L15.1511,10.9998 C15.8171,10.9998 16.4118,11.7055 16.2233,12.5007 C15.999,13.4471 15.7999,14.5445 15.7999,15.4998 C15.7999,16.4551 15.999,17.5526 16.2233,18.499 C16.4118,19.2941 15.8171,19.9998 15.1511,19.9998 L8.8487,19.9998 C8.18268,19.9998 7.58797,19.2941 7.77646,18.499 C7.81541,18.3347 7.8536,18.1658 7.89012,17.9939 C7.92617,17.9978 7.9628,17.9998 7.9999,17.9998 L10.9999,17.9998 C11.5522,17.9998 11.9999,17.5521 11.9999,16.9998 C11.9999,16.4476 11.5522,15.9998 10.9999,15.9998 L8.18337,15.9998 C8.1941,15.83 8.1999,15.6629 8.1999,15.4998 C8.1999,15.3368 8.1941,15.1697 8.18337,14.9998 L10.9999,14.9998 C11.5522,14.9998 11.9999,14.5521 11.9999,13.9998 C11.9999,13.4476 11.5522,12.9998 10.9999,12.9998 L7.88885,12.9998 C7.85272,12.83 7.81496,12.6631 7.77646,12.5007 Z"/></g></svg>

<svg xmlns="http://www.w3.org/2000/svg" width="24" height="24"><g fill="none" fill-rule="evenodd"><path d="M24 0v24H0V0zM12.594 23.258l-.012.002-.071.035-.02.004-.014-.004-.071-.036c-.01-.003-.019 0-.024.006l-.004.01-.017.428.005.02.01.013.104.074.015.004.012-.004.104-.074.012-.016.004-.017-.017-.427c-.002-.01-.009-.017-.016-.018m.264-.113-.014.002-.184.093-.01.01-.003.011.018.43.005.012.008.008.201.092c.012.004.023 0 .029-.008l.004-.014-.034-.614c-.003-.012-.01-.02-.02-.022m-.715.002a.023.023 0 0 0-.027.006l-.006.014-.034.614c0 .012.007.02.017.024l.015-.002.201-.093.01-.008.003-.011.018-.43-.003-.012-.01-.01z"/><path fill="#09244B" d="M6.373 10.279c-.45-.361-.428-.906-.194-1.374a6 6 0 0 1 3.47-3.009l.086-.029-.235-.705a2.635 2.635 0 1 1 5 0l-.235.705.086.03a6 6 0 0 1 3.47 3.008c.233.468.255 1.013-.194 1.374.542.751.767 1.737.542 2.683-.213.899-.37 1.817-.37 2.538 0 .72.157 1.639.37 2.538C18.62 19.94 17.257 22 15.151 22H8.85c-2.106 0-3.47-2.06-3.019-3.962.213-.9.37-1.817.37-2.538 0-.721-.157-1.64-.37-2.538-.224-.946 0-1.932.542-2.683m5.343-6.52a.636.636 0 0 1 .887.77l-.394 1.18a1.5 1.5 0 0 0 .949 1.898l.56.187a4 4 0 0 1 1.804 1.228 3.142 3.142 0 0 0-.37-.022H8.848c-.127 0-.25.007-.371.022a4 4 0 0 1 1.803-1.228l.56-.187a1.5 1.5 0 0 0 .95-1.898l-.394-1.18c-.1-.3.036-.628.319-.769m-3.94 8.742C7.588 11.706 8.183 11 8.85 11h6.302c.666 0 1.26.706 1.072 1.5-.224.947-.423 2.044-.423 3 0 .955.199 2.053.423 2.999.189.795-.406 1.5-1.072 1.5H8.85c-.666 0-1.261-.705-1.073-1.5.04-.164.078-.333.114-.505.036.004.073.006.11.006h3a1 1 0 1 0 0-2H8.183a7.944 7.944 0 0 0 0-1H11a1 1 0 1 0 0-2H7.889c-.036-.17-.074-.337-.113-.5"/></g></svg>
